X: 3149
T: Beauty Spot, The
R: reel
M: 4/4
K: Dmixolydian
B|A2 GB AddB|cBcG EFGB|A2 GB AddB|cBcG EDDB|
A2 GB AddB|cBcG EFGB|AGAd B3 d|cBcG EDDB||
eddd edcd|edcd eaag|edcd eddc|ABcd eddg|
eddd edcd|edcd eaag|fgdB c2 AB|ABcd edd||

